src/assets/github.svg

<?xml version="1.0" encoding="UTF-8" standalone="no"?>
<!DOCTYPE svg PUBLIC "-//W3C//DTD SVG 1.1//EN" "http://www.w3.org/Graphics/SVG/1.1/DTD/svg11.dtd">
<svg width="27.7px" height="27px" viewBox="0 0 116 113" version="1.1" xmlns="http://www.w3.org/2000/svg" xmlns:xlink="http://www.w3.org/1999/xlink" xml:space="preserve" style="fill-rule:evenodd;clip-rule:evenodd;stroke-linejoin:round;stroke-miterlimit:1.41421;">
    <g transform="matrix(1,0,0,1,-568.001,-447.669)">
        <g transform="matrix(4.16667,0,0,4.16667,0,0)">
            <g transform="matrix(0.849728,0,0,0.849728,20.4851,16.1453)">
                <path d="M152.608,107.441C143.613,107.441 136.32,114.734 136.32,123.731C136.32,130.928 140.987,137.033 147.46,139.188C148.275,139.337 148.572,138.834 148.572,138.402C148.572,138.016 148.558,136.991 148.55,135.632C144.019,136.616 143.063,133.448 143.063,133.448C142.322,131.567 141.254,131.066 141.254,131.066C139.775,130.055 141.366,130.075 141.366,130.075C143.001,130.191 143.861,131.754 143.861,131.754C145.314,134.243 147.674,133.524 148.602,133.108C148.75,132.055 149.17,131.337 149.636,130.93C146.019,130.519 142.216,129.121 142.216,122.879C142.216,121.101 142.851,119.647 143.893,118.508C143.725,118.096 143.166,116.44 144.052,114.197C144.052,114.197 145.42,113.759 148.532,115.867C149.831,115.506 151.225,115.325 152.61,115.319C153.993,115.325 155.387,115.506 156.688,115.867C159.798,113.759 161.163,114.197 161.163,114.197C162.052,116.44 161.493,118.096 161.325,118.508C162.369,119.647 163,121.101 163,122.879C163,129.137 159.191,130.514 155.562,130.917C156.147,131.42 156.668,132.414 156.668,133.934C156.668,136.111 156.648,137.868 156.648,138.402C156.648,138.838 156.941,139.345 157.768,139.186C164.236,137.027 168.899,130.926 168.899,123.731C168.899,114.734 161.605,107.441 152.608,107.441" style="fill:rgb(82,36,79);"/>
            </g>
        </g>
    </g>
</svg>

<svg xmlns="http://www.w3.org/2000/svg" xml:space="preserve" width="27.7" height="27" style="fill-rule:evenodd;clip-rule:evenodd;stroke-linejoin:round;stroke-miterlimit:1.41421" viewBox="0 0 116 113">
  <path d="M152.6 107.44a16.29 16.29 0 0 0-5.14 31.75c.81.15 1.11-.36 1.11-.79l-.02-2.77c-4.53.99-5.49-2.18-5.49-2.18-.74-1.88-1.8-2.38-1.8-2.38-1.48-1.01.1-1 .1-1 1.64.12 2.5 1.68 2.5 1.68 1.45 2.5 3.81 1.77 4.74 1.36a3.48 3.48 0 0 1 1.04-2.18c-3.62-.41-7.42-1.8-7.42-8.05a6.3 6.3 0 0 1 1.67-4.37 5.86 5.86 0 0 1 .16-4.31s1.37-.44 4.48 1.67a15.6 15.6 0 0 1 8.16 0c3.1-2.11 4.47-1.67 4.47-1.67.9 2.24.33 3.9.16 4.3a6.29 6.29 0 0 1 1.68 4.38c0 6.26-3.8 7.63-7.44 8.04.59.5 1.1 1.5 1.1 3.01l-.01 4.47c0 .44.3.94 1.12.79a16.3 16.3 0 0 0-5.16-31.75" style="fill:#52244f" transform="matrix(3.54054 0 0 3.54054 -482.65 -380.4)"/>
</svg>
